blockchains/ethereum/assets/0x582d872A1B094FC48F5DE31D3B73F2D9bE47def1/logo.svg

<svg fill="none" height="250" viewBox="0 0 250 250" width="250" xmlns="http://www.w3.org/2000/svg" xmlns:xlink="http://www.w3.org/1999/xlink"><clipPath id="a"><path d="m0 0h250v250h-250z"/></clipPath><g clip-path="url(#a)"><path d="m125 250c69.036 0 125-55.964 125-125 0-69.0356-55.964-125-125-125-69.0356 0-125 55.9644-125 125 0 69.036 55.9644 125 125 125z" fill="#08c"/><path clip-rule="evenodd" d="m90.2179 82.6094h70.1091c2.48 0 4.959.3643 7.549 1.5719 3.105 1.4468 4.751 3.7285 5.905 5.4156.09.1312.174.2665.251.4049 1.356 2.4143 2.056 5.021 2.056 7.825 0 2.6642-.634 5.5672-2.056 8.0972-.013.024-.027.048-.041.072l-44.294 76.087c-.976 1.678-2.774 2.707-4.716 2.7-1.941-.007-3.732-1.049-4.697-2.733l-43.4799-75.925c-.0125-.021-.025-.042-.0375-.062-.9951-1.64-2.5339-4.175-2.8031-7.4483-.2474-3.0089.429-6.0241 1.941-8.6384 1.5121-2.6147 3.7884-4.7049 6.5264-5.9843 2.9357-1.3719 5.9107-1.3826 7.787-1.3826zm29.3481 10.8696h-29.3481c-1.9281 0-2.6683.1188-3.1857.3607-.7156.334-1.3165.8831-1.7183 1.5782-.4018.695-.5835 1.5004-.5174 2.3062.0379.4625.2263.9911 1.3375 2.8239.0232.038.046.077.0683.116l33.3637 58.258zm10.869 0v65.731l34.136-58.639c.386-.6996.647-1.7112.647-2.7442 0-.838-.174-1.5656-.562-2.3161-.408-.5857-.656-.896-.864-1.1085-.178-.1817-.315-.279-.508-.3692-.808-.3763-1.634-.554-2.957-.554z" fill="#fff" fill-rule="evenodd"/></g></svg>

<svg width="250" height="250" viewBox="0 0 250 250" fill="none" xmlns="http://www.w3.org/2000/svg">
<g clip-path="url(#clip0_46_11475)">
<path d="M125 250C194.036 250 250 194.036 250 125C250 55.9644 194.036 0 125 0C55.9644 0 0 55.9644 0 125C0 194.036 55.9644 250 125 250Z" fill="#0088CC"/>
<path fill-rule="evenodd" clip-rule="evenodd" d="M90.2179 82.6094H160.327C162.807 82.6094 165.286 82.9737 167.876 84.1813C170.981 85.6281 172.627 87.9098 173.781 89.5969C173.871 89.7281 173.955 89.8634 174.032 90.0018C175.388 92.4161 176.088 95.0228 176.088 97.8268C176.088 100.491 175.454 103.394 174.032 105.924C174.019 105.948 174.005 105.972 173.991 105.996L129.697 182.083C128.721 183.761 126.923 184.79 124.981 184.783C123.04 184.776 121.249 183.734 120.284 182.05L76.8041 106.125C76.7916 106.104 76.7791 106.083 76.7666 106.063C75.7715 104.423 74.2327 101.888 73.9635 98.6147C73.7161 95.6058 74.3925 92.5906 75.9045 89.9763C77.4166 87.3616 79.6929 85.2714 82.4309 83.992C85.3666 82.6201 88.3416 82.6094 90.2179 82.6094ZM119.566 93.479H90.2179C88.2898 93.479 87.5496 93.5978 87.0322 93.8397C86.3166 94.1737 85.7157 94.7228 85.3139 95.4179C84.9121 96.1129 84.7304 96.9183 84.7965 97.7241C84.8344 98.1866 85.0228 98.7152 86.134 100.548C86.1572 100.586 86.18 100.625 86.2023 100.664L119.566 158.922V93.479ZM130.435 93.479V159.21L164.571 100.571C164.957 99.8714 165.218 98.8598 165.218 97.8268C165.218 96.9888 165.044 96.2612 164.656 95.5107C164.248 94.925 164 94.6147 163.792 94.4022C163.614 94.2205 163.477 94.1232 163.284 94.033C162.476 93.6567 161.65 93.479 160.327 93.479H130.435Z" fill="white"/>
</g>
<defs>
<clipPath id="clip0_46_11475">
<rect width="250" height="250" fill="white"/>
</clipPath>
</defs>
</svg>
